X: 1761
M: 3/4
L: 1/8
K: F
V: 1
[|"PRIMO"!ff!\
.c2 z2 z2 | .d2 z2 z2 | .e2 z2 z2 | .f2 z2 z2 |\
f2 d4 | c3 B A2 | (AB) G4 | (GAG).^F G2 |\
c3 A F2 | (GAG).^F G2 | ^G2 "^>"A4 | c3 B A2 |
f2 d4 | c3 B A2 | (AB) "^>"G4 | (GAG)^F G2 |\
(=FA) c4 | (GAG).^F G2 | =F4 z2 |]
|:\
!ff!(G^FG).A .B.c | .d2 .d2 d2- | d2 (c=B) (cd) | B2 (cB) A2 |\
[K: Bb]|:!p!\
(F2 B2) .d2 | f4 f2 | (g2 f2) =e2 | f6 |\
(e2 f2) .e2 | (d2 c2) B2 | A2 ff f2 | g2 f2 e2 |
d2 B2 d2 | f4 f2 | (g2 f2) =e2 | f4 f2 |\
_e2 =B2 c2 | d2 c2 _B2 | A2 {B}AG A2 | "_D.C. AL FINE"B4 z2 :|
V: 2
[|"SECONDO"!ff!\
.c2 z2 z2 | .=B2 z2 z2 | _B2 z2 z2 | .A2 z2 z2 |\
(F6 | E2) z2 E2 | F2 F2 z2 | !p!A3 G F2 |
d2 B4 | A3 G F2 | (^FG) E4 | B6 |\
d2 B4 | A3 G F2 | (^FG) "^>"E4 |
|: !ff!\
E6- | E2 .G2 .B2 | (^G2 A2) (^F2 | =G2) .E2 =F2- |\
[K: Bb]|:!p!\
(D2 F2) B2 | d4 f2 | (_e2 d2) .^c2 | d6 |\
(c2 d2) .c2 | (B2 A2) .G2 | F2 FF F2 | e2 d2 c2 |
c2 D2 _E2 | F2 E2 D2 | C2 z2 C2 | "_D.C. AL FINE"D4 z2 :|


